X:1
T: Mominette
M: 4/4
L: 1/8
R: reel
K:Emin
E2 GB E2 GB|c2 BA B3 B|cded c2 BA|G2 A2 B4|
E2 GB E2 GB|c2 BA B3 B|cded c2 BA|G2 F2 E4:|
e2 fg f2 e2|de d2 B3 B|cded c2 BA|G2 A2 B2 Bd|
e2 fg f2 e2|de d2 B3 B|cded c2 BA|G2 F2 E4:|
